logos/udacity-icon.svg

<?xml version="1.0" encoding="UTF-8"?>
<svg width="256px" height="256px" viewBox="0 0 256 256" version="1.1" xmlns="http://www.w3.org/2000/svg" xmlns:xlink="http://www.w3.org/1999/xlink" preserveAspectRatio="xMidYMid">
    <title>Udacity</title>
    <g>
        <path d="M19.6097166,59.5587476 L84.1642521,22.0545058 L84.2031668,127.227503 C84.0830387,166.206432 111.429973,201.172526 149.226372,210.371203 L150.072345,210.576817 L149.532614,211.257701 C148.676489,212.380148 147.854202,213.453721 146.840727,214.459878 C143.41961,217.84576 139.655029,220.91985 135.655267,223.594512 C131.623358,226.289397 127.317354,228.603391 122.853998,230.467396 L122.853998,230.469081 C118.306045,232.366793 113.553367,233.81957 108.733011,234.786965 C103.645327,235.806606 99.2462655,236.266709 94.5358855,236.266709 C94.3853023,236.266709 94.2313351,236.266709 94.0790599,236.266709 C88.9507693,236.248169 83.8410903,235.720653 78.893838,234.69427 C74.0785577,233.69991 69.336031,232.216796 64.7982298,230.288748 C60.3568696,228.402834 56.0627089,226.065244 52.0375676,223.340023 C48.0479572,220.635025 44.3053711,217.539025 40.9130178,214.13629 C37.5071291,210.725128 34.4193263,206.976895 31.7409746,202.997768 C29.0338599,198.979877 26.712509,194.690644 24.8412158,190.24636 C22.9394678,185.734659 21.4810097,181.002178 20.5064484,176.180373 C19.4540575,170.979362 19.3271615,165.606445 19.342389,161.037443 L19.3322374,59.7205419 L19.6097166,59.5587476 Z M182.031527,192.098566 C185.763961,181.602164 187.672477,171.331601 187.702932,161.575071 L187.702932,50.501641 L236.640799,22.5095522 L236.640799,127.694347 C236.627263,132.463906 236.182281,136.982347 235.319389,141.119898 C234.429425,145.388906 233.108014,149.580389 231.395764,153.578054 C229.707202,157.518418 227.622723,161.313841 225.201548,164.858146 C222.798983,168.378857 220.04111,171.688897 217.004066,174.697259 C213.961945,177.707306 210.622043,180.435898 207.075722,182.803824 C203.505715,185.19366 199.678531,187.248109 195.699073,188.909871 C191.684082,190.637362 187.939804,191.783404 183.185435,192.737316 C183.0247,192.769338 182.843661,192.80136 182.655855,192.833382 L181.713441,192.998547 L182.031527,192.098566 Z M5.4e-05,49.3909909 L0.0457365617,160.985197 C-0.109922537,212.678456 41.9823282,254.861248 93.8743344,255.019672 L94.1585814,255.019672 C110.646602,255.019672 126.870679,250.708529 141.076265,242.55983 L209.711775,203.274166 C238.168628,188.56943 255.893461,159.631855 255.989902,127.744907 L256.000054,11.1940676 C256.000054,10.8620523 255.820707,10.5519467 255.533076,10.3850964 L255.533076,10.383411 L238.720202,0.589803456 C238.432571,0.42126779 238.072186,0.42126779 237.781171,0.58306203 L168.824191,39.3496359 C168.5281,39.5148008 168.34537,39.8282773 168.34537,40.1670339 L168.404588,161.497545 C168.391052,166.59912 167.861473,171.688897 166.829385,176.626992 C165.827753,181.430259 164.342224,186.152627 162.41002,190.666013 C162.047944,191.507006 161.67064,192.342943 161.278108,193.170453 L161.103838,193.537861 L160.699462,193.485615 C159.533711,193.333932 158.765568,193.190677 156.714928,192.806416 L156.171813,192.70361 C151.855657,191.818797 143.067685,189.32784 132.592843,182.586413 C129.044831,180.183095 125.720156,177.434278 122.705107,174.409063 C119.681598,171.380477 116.942336,168.053583 114.565151,164.522761 C112.159203,160.95149 110.098412,157.144269 108.440304,153.20559 C106.751741,149.196127 105.459094,144.994533 104.594509,140.725524 C103.822981,136.913248 103.501511,132.959401 103.520123,127.507272 L103.520123,11.1030583 C103.520123,10.7727284 103.350928,10.4710496 103.066681,10.2974578 L86.2724177,0.136442515 C86.1218345,0.0454332551 85.9526398,-7.13747572e-05 85.7817532,-7.13747572e-05 C85.6210182,-7.13747572e-05 85.4585913,0.0420625417 85.3147759,0.124645018 L0.472107137,48.5769637 C0.182784247,48.743814 5.4e-05,49.0556049 5.4e-05,49.3909909 L5.4e-05,49.3909909 Z" fill="#2015FF"></path>
    </g>
</svg>

<svg preserveAspectRatio="xMidYMid" viewBox="0 0 256 256" xmlns="http://www.w3.org/2000/svg">
  <path fill="#2015FF" d="m19.61 59.559 64.554-37.504.04 105.173c-.121 38.978 27.226 73.945 65.022 83.143l.846.206-.54.68c-.856 1.123-1.678 2.197-2.691 3.203a75.993 75.993 0 0 1-11.186 9.135 75.346 75.346 0 0 1-12.801 6.872v.002a75.165 75.165 0 0 1-14.121 4.318c-5.088 1.02-9.487 1.48-14.197 1.48h-.457a76.27 76.27 0 0 1-15.185-1.573 74.825 74.825 0 0 1-14.096-4.405 75.348 75.348 0 0 1-23.885-16.153 75.387 75.387 0 0 1-9.172-11.138 74.874 74.874 0 0 1-6.9-12.752 74.068 74.068 0 0 1-4.335-14.066c-1.052-5.2-1.179-10.574-1.164-15.143l-.01-101.316.278-.162Zm162.422 132.54c3.732-10.497 5.64-20.767 5.67-30.524V50.502l48.939-27.992v105.184c-.014 4.77-.459 9.288-1.322 13.426a65.842 65.842 0 0 1-10.117 23.738 67.197 67.197 0 0 1-8.198 9.84 67.242 67.242 0 0 1-9.928 8.106 66.696 66.696 0 0 1-11.377 6.106c-4.015 1.727-7.76 2.873-12.514 3.827-.16.032-.341.064-.53.096l-.942.166.319-.9ZM0 49.39l.046 111.594c-.156 51.693 41.936 93.876 93.828 94.035h.285c16.488 0 32.712-4.311 46.917-12.46l68.636-39.286c28.457-14.705 46.181-43.642 46.278-75.53l.01-116.55a.939.939 0 0 0-.467-.809v-.002L238.72.59a.952.952 0 0 0-.939-.007L168.824 39.35a.936.936 0 0 0-.479.817l.06 121.33a75.073 75.073 0 0 1-1.576 15.13 74.267 74.267 0 0 1-4.419 14.039c-.362.841-.74 1.677-1.132 2.504l-.174.368-.405-.052c-1.165-.152-1.933-.295-3.984-.68l-.543-.102c-4.316-.885-13.104-3.376-23.58-10.118a67.169 67.169 0 0 1-9.887-8.177 66.966 66.966 0 0 1-8.14-9.886 66.453 66.453 0 0 1-6.125-11.317 65.967 65.967 0 0 1-3.845-12.48c-.772-3.813-1.093-7.767-1.075-13.219V11.103c0-.33-.17-.632-.453-.806L86.272.137a.946.946 0 0 0-.957-.012L.472 48.577a.944.944 0 0 0-.472.814Z"/>
</svg>
